docs/local/img/sprites/search.svg

<svg width="24" height="24" viewBox="0 0 24 24" xmlns="http://www.w3.org/2000/svg">
<g clip-path="url(#clip0_2351_1528)">
<path d="M22.4901 22.5623L16.3772 16.4493C17.7174 14.8424 18.5263 12.7776 18.5263 10.5262C18.5263 5.41848 14.3709 1.26315 9.26314 1.26315C4.15536 1.26315 0 5.41848 0 10.5262C0 15.634 4.15536 19.7893 9.26314 19.7893C11.5145 19.7893 13.5793 18.9805 15.1863 17.6403L21.2993 23.7533C21.4637 23.9177 21.6793 24 21.8947 24C22.1101 24 22.3256 23.9177 22.4901 23.7533C22.8191 23.4242 22.8191 22.8912 22.4901 22.5623V22.5623ZM1.68421 10.5262C1.68421 6.34732 5.08378 2.94735 9.26314 2.94735C13.4425 2.94735 16.8421 6.34732 16.8421 10.5262C16.8421 14.7051 13.4425 18.1051 9.26314 18.1051C5.08378 18.1051 1.68421 14.7051 1.68421 10.5262Z"/>
</g>
<defs>
<clipPath id="clip0_2351_1528">
<rect width="24" height="24"/>
</clipPath>
</defs>
</svg>

<svg width="24" height="24" viewBox="0 0 24 24" xmlns="http://www.w3.org/2000/svg"><g clip-path="url(#clip0_2351_1528)"><path d="M22.49 22.562l-6.113-6.113a9.219 9.219 0 002.15-5.923c0-5.108-4.156-9.263-9.264-9.263S0 5.418 0 10.526s4.155 9.263 9.263 9.263a9.22 9.22 0 005.923-2.149l6.113 6.113a.84.84 0 001.191 0 .842.842 0 000-1.19zM1.684 10.526c0-4.179 3.4-7.579 7.58-7.579 4.179 0 7.578 3.4 7.578 7.58 0 4.178-3.4 7.578-7.579 7.578-4.18 0-7.579-3.4-7.579-7.579z"/></g><defs><clipPath id="clip0_2351_1528"><path d="M0 0h24v24H0z"/></clipPath></defs></svg>
